X:77
T:Glass of Beer, The
R:reel
D:Oisin: Over the Moor to Maggie.
D:Frankie Gavin: Up and Away
Z:id:hn-reel-77
M:C|
K:Bm
fB~B2 fBaB|fB~B2 e2de|fB~B2 fgfe|1 dfaf efde:|2 dfaf efdB||
|:dcde fgfe|defd edBA|~d3e fgfe|1 dfaf efdB:|2 dfaf (3efede||
